admin/src/theme/img/safetyequipment/i.svg

<svg width="32" height="32" viewBox="0 0 32 32" xmlns="http://www.w3.org/2000/svg">
  <g fill="none" fill-rule="evenodd">
    <path d="M16 4.18857143c1.8285714 0 3.3942857.65142857 4.7028571 1.96 1.3085715 1.30857143 1.96 2.87428571 1.96 4.70285717 0 1.8285714-.6514285 3.4-1.96 4.7028571-1.3085714 1.3085714-2.8742857 1.96-4.7028571 1.96s-3.3942857-.6514286-4.7028571-1.96C9.98857143 14.2457143 9.33714286 12.68 9.33714286 10.8514286c0-1.82857146.65142857-3.39428574 1.96000004-4.70285717 1.3085714-1.30857143 2.8742857-1.96 4.7028571-1.96Zm0 .95428571c-1.6 0-2.9542857.56-4.0571429 1.67428572C10.84 7.93714286 10.2857143 9.28 10.2857143 10.8571429c0 1.5771428.5542857 2.92 1.6571428 4.04C13.0457143 16.0171429 14.4 16.5714286 16 16.5714286c1.6 0 2.92-.56 4.04-1.6742857 1.12-1.12 1.6742857-2.4628572 1.6742857-4.04 0-1.5771429-.56-2.92000004-1.6742857-4.04000004-1.12-1.12-2.4628571-1.67428572-4.04-1.67428572ZM11.24 30.8571429h9.5257143V32H11.24v-1.1428571Zm2.0971429-24.57142861h5.3314285L16 10.8571429l-2.6685714-4.57142861h.0057143Zm5.3314285 9.14285711h-5.3314285l2.6685714-4.5714285 2.6685714 4.5714285h-.0057143Zm-3.24 0v1.1428572h1.1428572v-1.1428572h-1.1428572Zm0 2.1314286h1.1428572v13.3714286h-1.1428572V17.56Z" fill="#EC0E0E" fill-rule="nonzero"/>
    <path d="M0 0h32v32H0z"/>
  </g>
</svg>

<?xml version="1.0" encoding="UTF-8"?>
<svg width="32px" height="32px" viewBox="0 0 32 32" version="1.1" xmlns="http://www.w3.org/2000/svg" xmlns:xlink="http://www.w3.org/1999/xlink">
    <title>1E7F382B-E2CE-4164-9F69-5D68E63E36EC</title>
    <g id="Squat-laskuri" stroke="none" stroke-width="1" fill="none" fill-rule="evenodd">
        <g id="colors_and_typography" transform="translate(-1102.000000, -906.000000)">
            <g id="turvalaite_ikonit" transform="translate(718.000000, 906.000000)">
                <g id="kardinaali_länsi_valaistu" transform="translate(384.000000, 0.000000)">
                    <path d="M16,4.18857143 C17.8285714,4.18857143 19.3942857,4.84 20.7028571,6.14857143 C22.0114286,7.45714286 22.6628571,9.02285714 22.6628571,10.8514286 C22.6628571,12.68 22.0114286,14.2514286 20.7028571,15.5542857 C19.3942857,16.8628571 17.8285714,17.5142857 16,17.5142857 C14.1714286,17.5142857 12.6057143,16.8628571 11.2971429,15.5542857 C9.98857143,14.2457143 9.33714286,12.68 9.33714286,10.8514286 C9.33714286,9.02285714 9.98857143,7.45714286 11.2971429,6.14857143 C12.6057143,4.84 14.1714286,4.18857143 16,4.18857143 L16,4.18857143 Z M16,5.14285714 C14.4,5.14285714 13.0457143,5.70285714 11.9428571,6.81714286 C10.84,7.93714286 10.2857143,9.28 10.2857143,10.8571429 C10.2857143,12.4342857 10.84,13.7771429 11.9428571,14.8971429 C13.0457143,16.0171429 14.4,16.5714286 16,16.5714286 C17.6,16.5714286 18.92,16.0114286 20.04,14.8971429 C21.16,13.7771429 21.7142857,12.4342857 21.7142857,10.8571429 C21.7142857,9.28 21.1542857,7.93714286 20.04,6.81714286 C18.92,5.69714286 17.5771429,5.14285714 16,5.14285714 Z M11.24,30.8571429 L20.7657143,30.8571429 L20.7657143,32 L11.24,32 L11.24,30.8571429 Z M13.3371429,6.28571429 L18.6685714,6.28571429 L16,10.8571429 L13.3314286,6.28571429 L13.3371429,6.28571429 Z M18.6685714,15.4285714 L13.3371429,15.4285714 L16.0057143,10.8571429 L18.6742857,15.4285714 L18.6685714,15.4285714 Z M15.4285714,15.4285714 L15.4285714,16.5714286 L16.5714286,16.5714286 L16.5714286,15.4285714 L15.4285714,15.4285714 Z M15.4285714,17.56 L16.5714286,17.56 L16.5714286,30.9314286 L15.4285714,30.9314286 L15.4285714,17.56 Z" id="Shape" fill="#EC0E0E" fill-rule="nonzero"></path>
                    <rect id="Rectangle" x="0" y="0" width="32" height="32"></rect>
                </g>
            </g>
        </g>
    </g>
</svg>
